!!!!SEGMENT: pl-cz--iii-246--001_gimeshoffer--partita-es-allegro-moderato.krn
!!!cenid: 17xx:2181
!!!COM: Gimeshoffer
!!!COM-rismid: pe30096330
!!!CDT: <1790->1810
!!!CNT:
!!!OPR: Partita Es
!!!OTL: Allegro moderato
!!!OMV: 001
!!!PDT:
!!!AGN: Secular
!!!SMS-siglum: PL-CZ
!!!SMS-shelfmark: III-246
!!!SMS-shelfwork: 001-001 M
!!!SMS-variant:
!!!SMS-altvar:
!!!NIFC-rismid: 300000341
!!!URL-scan: http://repozytorium.nifc.pl/skany/pl-cz-nut--iii-246
!!!ONB-nifc: UWAGA: częśći Partity: 1. Allegro moderato, 2. Menuetto, 3. Finale
!!!key:
**kern	**dynam	**kern	**dynam	**kern	**dynam	**kern	**dynam	**kern	**dynam
*part5	*part5	*part4	*part4	*part3	*part3	*part2	*part2	*part1	*part1
*staff5	*	*staff4	*	*staff3	*	*staff2	*	*staff1	*
*Iempty	*	*Iempty	*	*Ifagot	*	*Iclars	*	*Iclars	*
*I"Cornu Secundo in Dis	*	*I"Cornu Primo.	*	*I"Fagotto	*	*I"Clarinetto. Secundo.	*	*I"Clarinetto. Primo.	*
*I'cor 2	*	*I'cor 1	*	*I'fg	*	*I'cl 2	*	*I'cl 1	*
*clefG2	*	*clefG2	*	*clefF4	*	*clefG2	*	*clefG2	*
*ITrd5c9	*	*ITrd5c9	*	*	*	*ITrd1c2	*	*ITrd1c2	*
*	*	*	*	*ok[e-b-a-]	*	*	*	*	*
*k[b-e-a-]	*	*k[b-e-a-]	*	*k[b-e-a-]	*	*k[b-e-a-]	*	*k[b-e-a-]	*
*E-:	*	*E-:	*	*E-:	*	*E-:	*	*E-:	*
*M4/4	*	*M4/4	*	*M4/4	*	*M4/4	*	*M4/4	*
*met(c)	*	*met(c)	*	*met(c)	*	*met(c)	*	*met(c)	*
*	*	*	*	*	*	*all\right	*	*all\right	*
*>[A,A,B,B]	*	*>[A,A,B,B]	*	*>[A,A,B,B]	*	*>[A,A,B,B]	*	*>[A,A,B,B]	*
*>A	*	*>A	*	*>A	*	*>A	*	*>A	*
!LO:TX:a:t=Allo moderato	!	!	!	!	!	!	!	!LO:TX:t=P:problem:partia zachowała się w niepełnym kształcie, czasami puste miejsca	!
!	!	!	!	!	!LO:DY:t=f&colon;	!	!	!	!
8r	.	8ryy	.	8r	f	8r	.	8ryy	.
=1	=1	=1	=1	=1	=1	=1	=1	=1	=1
8r	.	8r	.	4E-\	.	4g/	f	2ryy	.
8G/	.	8e-\	.	.	.	.	.	.	.
!	!LO:DY:t=p&colon;:rj	!	!	!	!	!	!	!	!
4G/	p	4e-\	.	4r	.	8r	.	.	.
.	.	.	.	.	.	8b-/	.	.	.
8r	.	8r	.	4E-\	.	4g/	.	4ee-\	.
8G/	.	8e-\	.	.	.	.	.	.	.
4G/	.	4e-\	.	4r	.	8r	.	8r	.
.	.	.	.	.	.	8b-/	.	8gg\	.
=2	=2	=2	=2	=2	=2	=2	=2	=2	=2
4G/	.	4e-\	.	4E-\	.	8g\L	.	8ee-\L	.
.	.	.	.	.	.	8b-\	.	8gg\	.
4G/	.	4e-\	.	4E-\	.	8g\	.	8ee-\	.
.	.	.	.	.	.	8b-\J	.	8gg\J	.
8r	.	8r	.	4E-\	.	4g\	.	4ee-\	.
8G/	.	8e-\	.	.	.	.	.	.	.
4G/	.	4e-\	.	4r	.	4r	.	8r	.
.	.	.	.	.	.	.	.	8b-\	.
=3	=3	=3	=3	=3	=3	=3	=3	=3	=3
8r	.	8r	.	4AA-/	.	4dd\	.	4ff\	.
8B-/	.	8f\	.	.	.	.	.	.	.
4B-/	.	4f\	.	4r	.	8r	.	8r	.
.	.	.	.	.	.	8ff\	.	8aa-\	.
8r	.	8r	.	4BB-/	.	4dd\	.	2ryy	.
8B-/	.	8f\	.	.	.	.	.	.	.
4B-/	.	4f\	.	4r	.	8r	.	.	.
.	.	.	.	.	.	8ff\	.	.	.
=4	=4	=4	=4	=4	=4	=4	=4	=4	=4
4B-/	.	4f\	.	4BB-/	.	8dd\L	.	2ryy	.
.	.	.	.	.	.	8ff\	.	.	.
4B-/	.	4f\	.	4BB-/	.	8dd\	.	.	.
.	.	.	.	.	.	8ff\J	.	.	.
8r	.	8r	.	4BB-/	.	4dd\	.	4ff\	.
8B-/	.	8f\	.	.	.	.	.	.	.
4B-/	.	4f\	.	4r	.	4r	.	8r	.
.	.	.	.	.	.	.	.	8b-\	.
=5	=5	=5	=5	=5	=5	=5	=5	=5	=5
*	*	*2\right	*	*	*	*	*	*	*
!	!LO:DY:a:t=f&colon; p&colon;	!LO:N:vis=2	!LO:DY:t=f&colon; p&colon;	!	!LO:DY:t=fp.	!	!	!	!
1E-	fp	1e-	fp	1E-	fp	1g	.	16ee-\LL	.
.	.	.	.	.	.	.	.	16ff\	.
.	.	.	.	.	.	.	.	16gg\	.
.	.	.	.	.	.	.	.	16ff\JJ	.
.	.	.	.	.	.	.	.	4ee-\	.
.	.	.	.	.	.	.	.	8r	.
.	.	.	.	.	.	.	.	8dd-X\L	.
.	.	.	.	.	.	.	.	8dd-\	.
.	.	.	.	.	.	.	.	8dd-\J	.
=6	=6	=6	=6	=6	=6	=6	=6	=6	=6
*	*	*	*	*2\right	*	*	*	*	*
!	!	!	!LO:DY:t=f&colon;	!	!	!	!	!	!
2E-/	.	2e-\	f	2E-\	f	1a-	.	8dd-X\L	.
.	.	.	.	.	.	.	.	8cc\J	.
.	.	.	.	.	.	.	.	4cc\	.
!	!	!	!	!	!	!	!	!LO:LB:g=original	!
=-	=-	=-	=-	=-	=-	=-	=-	=-	=-
2B-/	f	2f\	.	2D\	.	.	.	4ryy	.
!	!	!	!	!	!	!	!	!LO:SIC:v:s=8een\L	!
.	.	.	.	.	.	.	.	8dd-\L	.
.	.	.	.	.	.	.	.	8ff\J	.
=7	=7	=7	=7	=7	=7	=7	=7	=7	=7
!	!LO:DY:a:t=f&colon; p&colon;	!	!LO:DY:t=f&colon; p&colon;	!	!	!	!	!	!
1E-	fp	1e-	fp	1E-	.	1g	.	16ee-\LL	.
.	.	.	.	.	.	.	.	16ff\	.
.	.	.	.	.	.	.	.	16gg\	.
.	.	.	.	.	.	.	.	16ff\JJ	.
.	.	.	.	.	.	.	.	4ee-\	.
.	.	.	.	.	.	.	.	8r	.
.	.	.	.	.	.	.	.	8dd-X\L	.
.	.	.	.	.	.	.	.	8dd-\	.
.	.	.	.	.	.	.	.	8dd-\J	.
!LO:LB:g=original	!	!	!	!	!	!	!	!	!
=8	=8	=8	=8	=8	=8	=8	=8	=8	=8
!	!	!	!	!	!	!	!	!LO:SIC:v:s=8ee-\L	!
2E-/	.	2e-\	.	2E-\	.	1a-	.	8dd\L	.
.	.	.	.	.	.	.	.	8cc\J	.
.	.	.	.	.	.	.	.	4cc\	.
!	!LO:DY:t=f&colon;	!	!	!	!	!	!	!	!
2B-/	f	2f\	.	2D\	.	.	.	8r	.
.	.	.	.	.	.	.	.	8aa-\L	.
.	.	.	.	.	.	.	.	8ddn\	.
.	.	.	.	.	.	.	.	8ff\J	.
=9	=9	=9	=9	=9	=9	=9	=9	=9	=9
4G/	.	4e-\	.	4E-\	.	4g/	.	4ee-\	.
4r	.	4r	.	4r	.	4B-/	.	4b-\	.
2r	.	2r	.	2r	.	4e-/	.	4ee-\	.
.	.	.	.	.	.	4g/	.	4gg\	.
!	!	!	!	!LO:LB:g=original	!	!LO:LB:g=original	!	!	!
=10	=10	=10	=10	=10	=10	=10	=10	=10	=10
*	*	*	*	*	*	*	*	*2\right	*
4r	.	4r	f	4r	.	1b-	.	2bb-\	.
4BB-'/	.	4B-\	.	4BB-/	.	.	.	.	.
4E-'/	.	4e-\	.	4E-\	.	.	.	8aa-\L	.
.	.	.	.	.	.	.	.	8gg\	.
4G'/	.	4ryy	.	4G\	.	.	.	8ff\	.
.	.	.	.	.	.	.	.	8ee-\J	.
!	!	!LO:LB:g=original	!	!	!	!	!	!	!
=11	=11	=11	=11	=11	=11	=11	=11	=11	=11
2B-/	.	2f\	.	4B-\	.	1b-	.	4.ddt\	.
.	.	.	.	4A-\	.	.	.	.	.
.	.	.	.	.	.	.	.	16ee-\LL	.
.	.	.	.	.	.	.	.	16ff\JJ	.
2G/	.	2e-\	.	4G\	.	.	.	4ee-\	.
.	.	.	.	4E-\	.	.	.	4gg\	.
=12	=12	=12	=12	=12	=12	=12	=12	=12	=12
2B-/	.	2f\	.	4D\	.	1b-	.	4.ff\	.
.	.	.	.	4BB-\	.	.	.	.	.
.	.	.	.	.	.	.	.	16gg\LL	.
.	.	.	.	.	.	.	.	16aa-\JJ	.
*2\right	*	*	*	*	*	*	*	*	*
2e-\	.	2g\	.	4E-\	.	.	.	4gg\	.
.	.	.	.	4G\	.	.	.	4ee-\	.
=13	=13	=13	=13	=13	=13	=13	=13	=13	=13
2B-/	.	2f\	.	4B-\	.	1b-	.	4.ddt\	.
.	.	.	.	4A-\	.	.	.	.	.
.	.	.	.	.	.	.	.	(16ee-\LL	.
.	.	.	.	.	.	.	.	16ff\JJ)	.
2G/	.	2e-\	.	4E-\	.	.	.	4ee-\	.
.	.	.	.	4D\	.	.	.	4gg\	.
!	!	!	!	!	!	!	!	!LO:LB:g=original	!
=14	=14	=14	=14	=14	=14	=14	=14	=14	=14
*	*	*	*	*	*	*2\right	*	*	*
2B-/	.	2f\	.	4D\	.	2.b-\	.	4.ff\	.
.	.	.	.	4BB-\	.	.	.	.	.
.	.	.	.	.	.	.	.	(16gg\LL	.
.	.	.	.	.	.	.	.	16aa-\JJ)	.
4e-\	.	4g\	.	4E-\	.	.	.	4gg\	.
4r	.	4r	.	4r	.	4gg\	.	4bb-\	.
=15	=15	=15	=15	=15	=15	=15	=15	=15	=15
4r	.	4r	.	4r	.	2gg\	.	2bb-\	.
!	!	!	!LO:DY:rj:t=f&colon;	!	!	!	!	!	!
4G/	.	4e-\	f	4E-\	.	.	.	.	.
4B-/	.	(4f\	.	4D\	.	8aa-\L	.	8ccc\L	.
.	.	.	.	.	.	8gg\	.	8bb-\	.
4e-/	.	4g\)	.	4E-\	.	8ff\	.	8aa-\	.
.	.	.	.	.	.	8ee-\J	.	8gg\J	.
=16	=16	=16	=16	=16	=16	=16	=16	=16	=16
.	.	.	.	.	.	.	.	8qgg/	.
!	!	!	!	!LO:TX:t=P:problem:mixed beam	!	!	!	!	!
4B-/	.	4f\	.	8BB-/L	.	4dd\	.	4ff\	.
.	.	.	.	8B-\	.	.	.	.	.
8.B-/L	.	8.f'\L	.	8F\	.	8.dd\L	.	8.ff\L	.
.	.	.	.	8D\J	.	.	.	.	.
16B-/Jk	.	16f'\Jk	.	.	.	16dd\Jk	.	16ff\Jk	.
4B-/	.	4f\	.	4BB-/	.	4dd\	.	4ff\	.
4r	.	4r	.	4r	.	8r	.	8r	.
.	.	.	.	.	.	8b-\	.	8dd\	.
!	!	!LO:LB:g=original	!	!	!	!	!	!	!
=17	=17	=17	=17	=17	=17	=17	=17	=17	=17
!	!LO:DY:t=f&colon;	!	!LO:DY:t=f&colon;	!	!	!	!	!	!
2B-/	f	2f\	f	4B-\	.	4.dd\	.	4.ff\	.
.	.	.	.	4BB-/	.	.	.	.	.
.	.	.	.	.	.	(16ee-\LL	.	(16gg\LL	.
.	.	.	.	.	.	16ff\JJ)	.	16aa\JJ)	.
2r	.	2r	.	4r	.	8gg'\L	.	(8bb-\L	.
.	.	.	.	.	.	8ff'\	.	8aa\	.
.	.	.	.	4B-\	.	8ee-'\	.	8gg\	.
.	.	.	.	.	.	8dd'\J	.	8ff\J)	.
!LO:LB:g=original	!	!	!	!	!	!	!	!	!
=18	=18	=18	=18	=18	=18	=18	=18	=18	=18
!	!LO:DY:t=p&colon;	!	!	!	!	!	!	!	!
4f\	p	4f\	.	4An\	.	4cc\	.	2ff\	.
4r	.	4r	.	8r	.	8r	.	.	.
.	.	.	.	16A\LL	.	(16cc\LL	.	.	.
.	.	.	.	16B-\JJ	.	16dd\JJ)	.	.	.
4r	.	4r	.	8c\L	.	8ee-\L	.	8ff\L	.
.	.	.	.	8A\	.	8cc\	.	8ff\	.
4f\	.	4f\	.	8c\J	.	8ee-\	.	8ff\	.
.	.	.	.	8ryy	.	8cc\J	.	8ff\J	.
!	!	!	!	!LO:LB:g=original	!	!	!	!	!
=19	=19	=19	=19	=19	=19	=19	=19	=19	=19
2B-/	.	2f\	.	4B-\	.	4.dd\	.	4.ff\	.
.	.	.	.	4BB-/	.	.	.	.	.
.	.	.	.	.	.	16ee-\LL	.	16gg\LL	.
.	.	.	.	.	.	16ff\JJ	.	16aa\JJ	.
2r	.	2r	.	4r	.	4ryy	.	8bb-\L	.
.	.	.	.	.	.	.	.	8aa\	.
.	.	.	.	4B-\	.	8ee-\L	.	8gg\	.
.	.	.	.	.	.	8dd\J	.	8ff\J	.
!	!	!	!	!	!	!LO:LB:g=original	!	!	!
=20	=20	=20	=20	=20	=20	=20	=20	=20	=20
!	!LO:DY:t=p&colon;	!	!	!	!	!	!	!	!
4f\	p	4f\	.	4An\	.	4.cc\	.	2ff\	.
4r	.	4r	.	8r	.	.	.	.	.
.	.	.	.	16A\LL	.	16cc\LL	.	.	.
.	.	.	.	16B-\JJ	.	16dd\JJ	.	.	.
4r	.	4r	.	8c\L	.	8ee-'\L	.	8ff\L	.
.	.	.	.	8A\	.	8cc'\	.	8ff\	.
4f\	.	4f\	.	8c\	.	8ee-'\	.	8ff\	.
.	.	.	.	8A\J	.	8cc'\J	.	8ff\J	.
=21	=21	=21	=21	=21	=21	=21	=21	=21	=21
4B-/	.	4f\	.	4B-\	.	4.dd\	.	4.ff\	.
4r	.	4r	.	4BB-/	.	.	.	.	.
.	.	.	.	.	.	8b-\	.	8dd\	.
!	!	!	!	!	!	!	!	!LO:LB:g=original	!
=-	=-	=-	=-	=-	=-	=-	=-	=-	=-
2r	.	2r	.	2r	.	8cc\L	.	8ee-\L	.
.	.	.	.	.	.	8dd\	.	8ff\	.
.	.	.	.	.	.	8ee-\	.	8ryy	.
.	.	.	.	.	.	8cc\J	.	8aa-\J	.
=22	=22	=22	=22	=22	=22	=22	=22	=22	=22
*	*	*	*	*tremolo	*	*	*	*	*
!	!	!	!LO:DY:t=f&colon;	!	!	!	!	!	!
2B-/	.	2f\	f	8D\L	.	2.b-\	.	2bb-\	.
.	.	.	.	8D\	.	.	.	.	.
.	.	.	.	8D\	.	.	.	.	.
.	.	.	.	8D\J	.	.	.	.	.
.	.	.	.	.	.	.	.	4qqaa-X/	.
2e-\	.	2g\	.	8E-\L	.	.	.	4gg\	.
.	.	.	.	8E-\	.	.	.	.	.
.	.	.	.	.	.	.	.	8qqff/	.
.	.	.	.	8E-\	.	4cc\	.	4ee-\	.
.	.	.	.	8E-\J	.	.	.	.	.
=23	=23	=23	=23	=23	=23	=23	=23	=23	=23
*	*	*	*	*	*	*tremolo	*	*	*
1f	.	1f	.	8F\L	.	8b-\L	.	2dd\	.
.	.	.	.	8F\	.	8b-\	.	.	.
.	.	.	.	8F\	.	8b-\	.	.	.
.	.	.	.	8F\J	.	8b-\J	.	.	.
.	.	.	.	8FF/L	.	8a\L	.	2ccT\	.
.	.	.	.	8FF/	.	8a\	.	.	.
.	.	.	.	8FF/	.	8a\	.	.	.
.	.	.	.	8FF/J	.	8a\J	.	.	.
*	*	*	*	*Xtremolo	*	*Xtremolo	*	*	*
=24	=24	=24	=24	=24	=24	=24	=24	=24	=24
4B-/	.	4f\	.	4BB-/	.	4b-\	.	(16ff\LL	.
.	.	.	.	.	.	.	.	16dd\	.
.	.	.	.	.	.	.	.	16ff\	.
.	.	.	.	.	.	.	.	16dd\JJ)	.
4r	.	4r	.	4r	.	4r	.	4b-\	.
4f\	.	4e-\	.	4FF/	.	4a\	.	16ee-\LL	.
.	.	.	.	.	.	.	.	16cc\	.
.	.	.	.	.	.	.	.	16ee-\	.
.	.	.	.	.	.	.	.	16cc\JJ	.
4r	.	4r	.	4r	.	4r	.	4a\	.
=25	=25	=25	=25	=25	=25	=25	=25	=25	=25
4B-/	.	4f\	.	4BB-/	.	4f/	.	16b-\LL	.
.	.	.	.	.	.	.	.	16cc\	.
.	.	.	.	.	.	.	.	16dd\	.
.	.	.	.	.	.	.	.	16ee-\JJ	.
4r	.	4r	.	4r	.	4r	.	16ff\LL	.
.	.	.	.	.	.	.	.	16gg\	.
.	.	.	.	.	.	.	.	16aa-\	.
.	.	.	.	.	.	.	.	16bb-\JJ	.
2r	.	2r	.	4r	.	4r	.	16bb-\LL	.
.	.	.	.	.	.	.	.	16aa-\	.
.	.	.	.	.	.	.	.	16gg\	.
.	.	.	.	.	.	.	.	16ff\JJ	.
.	.	.	.	4An\	.	4f/	.	16ee-\LL	.
.	.	.	.	.	.	.	.	16dd\	.
.	.	.	.	.	.	.	.	16cc\	.
.	.	.	.	.	.	.	.	16b-\JJ	.
=26	=26	=26	=26	=26	=26	=26	=26	=26	=26
4B-/	.	4f\	.	4B-\	.	16ff\LL	.	4b-\	.
.	.	.	.	.	.	16dd\	.	.	.
.	.	.	.	.	.	16ff\	.	.	.
.	.	.	.	.	.	16dd\JJ	.	.	.
4r	.	4r	.	4r	.	4b-\	.	4r	.
4f\	.	4f\	.	4F\	.	16ee-\LL	.	4a\	.
.	.	.	.	.	.	16cc\	.	.	.
.	.	.	.	.	.	16ee-\	.	.	.
.	.	.	.	.	.	16cc\JJ	.	.	.
4r	.	4r	.	4r	.	4a\	.	4r	.
=27	=27	=27	=27	=27	=27	=27	=27	=27	=27
4B-/	.	4f\	.	4BB-/	.	4b-\	.	8D/L	.
.	.	.	.	.	.	.	.	16F/L	.
.	.	.	.	.	.	.	.	16B-/JJ	.
4r	.	4r	.	4r	.	4r	.	16d/LL	.
.	.	.	.	.	.	.	.	16f/	.
.	.	.	.	.	.	.	.	16b-/	.
.	.	.	.	.	.	.	.	16dd/JJ	.
4B-/	.	4f\	.	4r	.	4r	.	8ff\L	.
.	.	.	.	.	.	.	.	8bb-\	.
4r	.	4r	.	4B-\	.	8r	.	8ff\	.
.	.	.	.	.	.	8dd\	.	8ff\J	.
!LO:LB:g=original	!	!LO:LB:g=original	!	!LO:LB:g=original	!	!LO:LB:g=original	!	!LO:LB:g=original	!
=28	=28	=28	=28	=28	=28	=28	=28	=28	=28
!	!LO:DY:t=p&colon;	!	!	!	!	!	!	!	!
4f\	p	4f\	.	8c'\L	.	8ee-'\L	.	8r	.
.	.	.	.	8B-'\	.	8dd'\	.	8ff\L	.
!	!	!	!	!LO:SIC:v:s=8An'\	!	!	!	!	!
4r	.	4r	.	8A-'\	.	8cc'\	.	8ff\	.
.	.	.	.	8G'\J	.	8b-'\J	.	8ff\J	.
4r	.	4r	.	8F'\L	.	8a/L	.	2ffT\	.
.	.	.	.	8E-'\	.	8g/	.	.	.
4f\	.	4f\	.	8D'\	.	8f/	.	.	.
.	.	.	.	8C'\J	.	8e-/J	.	.	.
=29	=29	=29	=29	=29	=29	=29	=29	=29	=29
!	!LO:DY:t=f&colon;	!	!	!	!	!	!	!	!
4B-/	f	4f\	.	4BB-/	.	4d/	.	8D/L	.
.	.	.	.	.	.	.	.	16F/L	.
.	.	.	.	.	.	.	.	16B-/JJ	.
4r	.	4r	.	4r	.	4r	.	16d/LL	.
.	.	.	.	.	.	.	.	16f/	.
.	.	.	.	.	.	.	.	16b-/	.
.	.	.	.	.	.	.	.	16dd/JJ	.
4B-/	.	4f\	.	4r	.	4r	.	8ff\L	.
.	.	.	.	.	.	.	.	8bb-\	.
4r	.	4r	.	8r	.	8r	.	8ff\	.
.	.	.	.	8B-\	.	8dd\	.	8ff\J	.
=30	=30	=30	=30	=30	=30	=30	=30	=30	=30
!	!LO:DY:t=p&colon;	!	!	!	!	!	!	!	!
4f\	p	4f\	.	8c\L	.	8ee-'\L	.	8ff\L	.
.	.	.	.	8B-\	.	8dd'\	.	8ff\	.
!	!	!	!	!LO:SIC:v:s=8An\	!	!	!	!	!
4r	.	4r	.	8A-\	.	8cc'\	.	8ff\	.
.	.	.	.	8G\J	.	8b-'\J	.	8ff\J	.
4r	.	4r	.	8F\L	.	8a\L	.	2ffT\	.
.	.	.	.	8E-\	.	8g\	.	.	.
4f\	.	4f\	.	8D\	.	8f\	.	.	.
.	.	.	.	8C\J	.	8e-\J	.	.	.
=31	=31	=31	=31	=31	=31	=31	=31	=31	=31
4B-/	.	4f\	.	4BB-/	.	4d/	.	4ff\	.
4r	.	4r	.	4r	.	8gg\L	.	8bb-\L	.
.	.	.	.	.	.	8qqaa-/	.	16qqccc/	.
.	.	.	.	.	.	8gg\J	.	8bb-\J	.
4r	.	4r	.	4r	.	8ff\L	.	8aa-\L	.
.	.	.	.	.	.	8qqgg/	.	16qqbb-/	.
.	.	.	.	.	.	8ff\J	.	8aa-\J	.
4f\	.	4g\	.	4E-\	.	8ee-\L	.	8gg\L	.
.	.	.	.	.	.	8qqff/	.	8qqaa-/	.
.	.	.	.	.	.	8ee-\J	.	8gg\J	.
=32	=32	=32	=32	=32	=32	=32	=32	=32	=32
4B-/	.	4f\	.	4BB-/	.	4dd\	.	4ff\	.
4r	.	4r	.	4r	.	8ee-\L	.	8gg\L	.
.	.	.	.	.	.	.	.	8qqaa-/	.
.	.	.	.	.	.	8ee-\J	.	8gg\J	.
4r	.	4r	.	4r	.	8dd\L	.	8ff\L	.
.	.	.	.	.	.	.	.	8qqgg/	.
.	.	.	.	.	.	8dd\J	.	8ff\J	.
!	!	!LO:N:vis=4	!	!	!	!	!	!	!
4f\	.	8f\	.	4AAn/	.	8cc\L	.	8ee-\L	.
!	!	!LO:N:vis=4	!	!	!	!	!	!	!
.	.	.	.	.	.	.	.	8qqff/	.
.	.	8r	.	.	.	8cc\J	.	8ee-\J	.
=33	=33	=33	=33	=33	=33	=33	=33	=33	=33
4B-/	.	4f\	.	4BB-/	.	8b-/L	.	8dd\L	.
.	.	.	.	.	.	8f/	.	8b-\	.
4r	.	4r	.	4r	.	8a/	.	8cc\	.
.	.	.	.	.	.	8b-/J	.	8dd\J	.
2r	.	2r	.	2r	.	8cc\L	.	8ee-\L	.
.	.	.	.	.	.	8dd\	.	8ff\	.
.	.	.	.	.	.	8ee-\	.	8gg\	.
.	.	.	.	.	.	8cc\J	.	8aa\J	.
=34	=34	=34	=34	=34	=34	=34	=34	=34	=34
*	*	*	*	*tremolo	*	*	*	*	*
!	!LO:DY:t=f&colon;	!	!	!	!	!	!	!	!
2B-/	f	2f\	.	8D\L	.	2.b-\	.	2bb-\	.
.	.	.	.	8D\	.	.	.	.	.
.	.	.	.	8D\	.	.	.	.	.
.	.	.	.	8D\J	.	.	.	.	.
.	.	.	.	.	.	.	.	8qqaa-X/	.
2e-\	.	2g\	.	8E-\L	.	.	.	4gg\	.
.	.	.	.	8E-\	.	.	.	.	.
.	.	.	.	.	.	.	.	8qqff/	.
.	.	.	.	8E-\	.	4cc\	.	4ee-\	.
.	.	.	.	8E-\J	.	.	.	.	.
!	!	!	!	!	!	!LO:LB:g=original	!	!	!
=35	=35	=35	=35	=35	=35	=35	=35	=35	=35
*	*	*	*	*	*	*tremolo	*	*	*
1f	.	1f	.	8F\L	.	8b-\L	.	2dd\	.
.	.	.	.	8F\	.	8b-\	.	.	.
.	.	.	.	8F\	.	8b-\	.	.	.
.	.	.	.	8F\J	.	8b-\J	.	.	.
.	.	.	.	8FF/L	.	8a\L	.	2ccT\	.
.	.	.	.	8FF/	.	8a\	.	.	.
.	.	.	.	8FF/	.	8a\	.	.	.
.	.	.	.	8FF/J	.	8a\J	.	.	.
*	*	*	*	*Xtremolo	*	*Xtremolo	*	*	*
!	!	!	!	!LO:LB:g=original	!	!	!	!LO:LB:g=original	!
=36	=36	=36	=36	=36	=36	=36	=36	=36	=36
4B-/	.	4f\	.	4BB-/	.	4b-\	.	4b-\	.
4r	.	4r	.	4r	.	4ee-\	.	4ryy	.
4r	.	4r	.	4r	.	4dd\	.	4ryy	.
4f\	.	4f\	.	4F\	.	4e-/	.	4a\	.
=37	=37	=37	=37	=37	=37	=37	=37	=37	=37
4B-/	.	4f\	.	4BB-/	.	4d/	.	4b-\	.
4r	.	4r	.	4r	.	4ee-\	.	4gg\	.
4r	.	4r	.	4r	.	4dd\	.	4ff\	.
!	!	!	!	!	!	!	!	!LO:SIC:v:s=4bn\	!
4f\	.	4f\	.	4FF/	.	4e-/	.	4a-\	.
!LO:LB:g=original	!	!LO:LB:g=original	!	!	!	!	!	!	!
=38	=38	=38	=38	=38	=38	=38	=38	=38	=38
4B-/	.	4f\	.	4BB-/	.	8d/L	.	8b-\L	.
.	.	.	.	.	.	8f/	.	8dd\	.
4B-/	.	4f\	.	4BB-/	.	8d/	.	8b-\	.
.	.	.	.	.	.	8f/J	.	8dd\J	.
4B-/	.	4f\	.	4BB-/	.	4d/	.	4b-\	.
8r	.	8r	.	8r	.	8r	.	8r	.
=:|!|:	=:|!|:	=:|!|:	=:|!|:	=:|!|:	=:|!|:	=:|!|:	=:|!|:	=:|!|:	=:|!|:
*>B	*	*>B	*	*>B	*	*>B	*	*>B	*
8ryy	.	8ryy	.	8r	.	8ryy	.	8b-\	.
=39	=39	=39	=39	=39	=39	=39	=39	=39	=39
!LO:TX:a:t=3	!	!LO:TX:a:t=3	!	!	!	!	!	!	!
0r	.	0r	.	8r	.	4.dd\	.	4.ff\	.
.	.	.	.	8BB-/L	.	.	.	.	.
.	.	.	.	8D/	.	.	.	.	.
.	.	.	.	8F/J	.	8cc\	.	8ee-\	.
.	.	.	.	4B-\	.	8b-\L	.	8dd\L	.
.	.	.	.	.	.	8cc\	.	8ee-\	.
.	.	.	.	4r	.	8dd\	.	8ff\	.
.	.	.	.	.	.	8ee-\J	.	8gg\J	.
=40	=40	=40	=40	=40	=40	=40	=40	=40	=40
.	.	.	.	8r	.	2ff\	.	2aa-X\	.
*	*	*	*	*tremolo	*	*	*	*	*
!	!	!	!	!LO:N:vis=2	!	!	!	!	!
.	.	.	.	8Bn\L	.	.	.	.	.
.	.	.	.	8B\	.	.	.	.	.
.	.	.	.	8B\J	.	.	.	.	.
*	*	*	*	*Xtremolo	*	*	*	*	*
.	.	.	.	2B\	.	8ff\L	.	8aa-\L	.
.	.	.	.	.	.	8ee-\	.	8gg\	.
.	.	.	.	.	.	8ee-\	.	8ff\	.
.	.	.	.	.	.	8dd\J	.	8ee-\J	.
=41	=41	=41	=41	=41	=41	=41	=41	=41	=41
1r	.	1r	.	4c\	.	8cc\L	.	8ee-\L	.
.	.	.	.	.	.	8ee-\	.	8gg\	.
!	!	!	!	!	!	!	!	!	!LO:HP:t=cres
.	.	.	.	4r	.	8ee-\	.	8gg\	<
.	.	.	.	.	.	8ee-\J	.	8gg\J	.
.	.	.	.	8r	.	2ee-T\	.	2gg\	.
.	.	.	.	8c\L	.	.	.	.	.
.	.	.	.	8c\	.	.	.	.	.
.	.	.	.	8c\J	.	.	.	.	.
=42	=42	=42	=42	=42	=42	=42	=42	=42	=42
*	*	*	*	*tremolo	*	*	*	*	*
1G	.	1G	.	8Bn\L	.	16dd\LL	.	16ff\LL	.
.	.	.	.	.	.	16cc#X\	.	16ee-\	.
.	.	.	.	8G\	.	16dd\	.	16ff\	.
.	.	.	.	.	.	16ee-\JJ	.	16gg\JJ	.
.	.	.	.	8B\	.	4dd\	.	4ff\	.
.	.	.	.	8G\J	.	.	.	.	.
.	.	.	.	8B\L	.	8r	.	8r	.
.	.	.	.	8G\	.	8dd\L	.	8ff\L	.
.	.	.	.	8B\	.	8dd\	.	8ff\	.
.	.	.	.	8G\J	.	8dd\J	.	8ff\J	.
!	!	!	!	!	!	!LO:LB:g=original	!	!	!
=43	=43	=43	=43	=43	=43	=43	=43	=43	=43
1G	.	1G	.	8c\L	.	16ccnX\LL	.	16ee-\LL	.
.	.	.	.	.	.	16dd\	.	16ff\	.
.	.	.	.	8G\	.	16ee-\	.	16gg\	.
.	.	.	.	.	.	16ff\JJ	.	16aa-X\JJ	.
.	.	.	.	8c\	.	4ee-\	.	4gg\	.
.	.	.	.	8G\J	.	.	.	.	.
.	.	.	.	8c\L	.	8r	.	8r	.
.	.	.	.	8G\	.	8ee-\L	.	8gg\L	.
.	.	.	.	8c\	.	8ee-\	.	8gg\	.
.	.	.	.	8G\J	.	8ee-\J	.	8gg\J	.
!	!	!	!	!LO:LB:g=original	!	!	!	!LO:LB:g=original	!
=44	=44	=44	=44	=44	=44	=44	=44	=44	=44
!	!	!	!	!LO:SIC:v:s=8Bn\L	!	!	!	!	!
1G	.	1G	.	8B-\L	.	16dd\LL	.	16ff\LL	.
.	.	.	.	.	.	16cc#X\	.	16ee-\	.
.	.	.	.	8G\	.	16dd\	.	16ryy	.
.	.	.	.	.	.	16ee-\JJ	.	16gg\JJ	.
!	!	!	!	!LO:SIC:v:s=Bn\	!	!	!	!	!
.	.	.	.	8B-\	.	4dd\	.	4ff\	.
.	.	.	.	8G\J	.	.	.	.	.
!	!	!	!	!LO:SIC:v:s=Bn\L	!	!	!	!	!
.	.	.	.	8B-\L	.	8r	.	8r	.
.	.	.	.	8G\	.	8dd\L	.	8ff\L	.
!	!	!	!	!LO:SIC:v:s=Bn\	!	!	!	!	!
.	.	.	.	8B-\	.	8dd\	.	8ff\	.
.	.	.	.	8G\J	.	8dd\J	.	8ff\J	.
*	*	*	*	*Xtremolo	*	*	*	*	*
=45	=45	=45	=45	=45	=45	=45	=45	=45	=45
4G/	.	4G/	.	8c\L	.	4ccnX\	.	4ee-\	.
.	.	.	.	8G\	.	.	.	.	.
4r	.	4r	.	8E-\	.	4r	.	4r	.
.	.	.	.	8G\J	.	.	.	.	.
2r	.	4r	.	4C/	.	8r	.	8r	.
.	.	.	.	.	.	8a-\L	.	8cc\L	.
.	.	4r	.	4r	.	8b-\	.	8dd\	.
.	.	.	.	.	.	8cc\J	.	8ee-\J	.
=46	=46	=46	=46	=46	=46	=46	=46	=46	=46
!LO:TX:a:t=1	!	!LO:TX:a:t=1	!	!	!	!	!	!	!
1r	.	1r	.	2r	.	8b-\L	.	8dd\L	.
.	.	.	.	.	.	8dd\	.	8ff\	.
.	.	.	.	.	.	8dd\	.	8ff\	.
.	.	.	.	.	.	8dd\J	.	8ff\J	.
.	.	.	.	8r	.	2ddt\	.	2ff\	.
!	!	!	!	!	!LO:HP:t=cres	!	!	!	!
.	.	.	.	8B-X\L	<	.	.	.	.
.	.	.	.	8B-\	.	.	.	.	.
.	.	.	.	8B-\J	.	.	.	.	.
=47	=47	=47	=47	=47	=47	=47	=47	=47	=47
*	*	*	*	*tremolo	*	*	*	*	*
1f	.	[1f	.	8An\L	.	16cc\LL	.	16ee-X\LL	.
.	.	.	.	.	.	16bX\	.	16dd\	.
.	.	.	.	8F\	.	16cc\	.	16ee-\	.
.	.	.	.	.	.	16dd\JJ	.	16ff\JJ	.
.	.	.	.	8A\	.	4cc\	.	4ee-\	.
.	.	.	.	8F\J	.	.	.	.	.
.	.	.	.	8G\L	.	8r	.	8r	.
.	.	.	.	8F\	.	8cc\L	.	8ee-\L	.
.	.	.	.	8G\	.	8cc\	.	8ee-\	.
.	.	.	.	8F\J	.	8cc\J	.	8ee-\J	.
=48	=48	=48	=48	=48	=48	=48	=48	=48	=48
1B-	.	1f_	.	8B-X\L	.	16b-X\LL	.	16dd\LL	.
.	.	.	.	.	.	16cc\	.	16ee-\	.
.	.	.	.	8F\	.	16dd\	.	16ff\	.
.	.	.	.	.	.	16ee-\JJ	.	16gg\JJ	.
.	.	.	.	8B-\	.	4dd\	.	4ff\	.
.	.	.	.	8F\J	.	.	.	.	.
.	.	.	.	8B-\L	.	8r	.	8r	.
.	.	.	.	8F\	.	8dd\L	.	8ff\L	.
.	.	.	.	8B-\	.	8dd\	.	8ff\	.
.	.	.	.	8F\J	.	8dd\J	.	8ff\J	.
!	!	!	!	!	!	!LO:LB:g=original	!	!	!
=49	=49	=49	=49	=49	=49	=49	=49	=49	=49
1f	.	1f]	.	8An\L	.	16cc\LL	.	16ee-\LL	.
.	.	.	.	.	.	16bX\	.	16dd\	.
.	.	.	.	8F\	.	16cc\	.	16ee-\	.
.	.	.	.	.	.	16dd\JJ	.	16ff\JJ	.
.	.	.	.	8A\	.	4cc\	.	4ee-\	.
.	.	.	.	8F\J	.	.	.	.	.
.	.	.	.	8A\L	.	8r	.	8r	.
.	.	.	.	8F\	.	8cc\L	.	8ee-\L	.
.	.	.	.	8A\	.	8cc\	.	8ee-\	.
.	.	.	.	8F\J	.	8cc\J	.	8ee-\J	.
*	*	*	*	*Xtremolo	*	*	*	*	*
=50	=50	=50	=50	=50	=50	=50	=50	=50	=50
4B-/	.	4f\	.	4BB-/	.	4b-\	.	4dd\	.
4r	.	4r	.	4r	.	8d/L	.	8b-\L	.
.	.	.	.	.	.	8f/J	.	8cc\J	.
2r	.	2r	.	2r	.	8b-\L	.	8dd\L	.
.	.	.	.	.	.	8cc\	.	8ee-\	.
.	.	.	.	.	.	8dd\	.	8ff\	.
.	.	.	.	.	.	8ee-\J	.	8gg\J	.
!	!	!	!	!LO:LB:g=original	!	!	!	!LO:LB:g=original	!
=51	=51	=51	=51	=51	=51	=51	=51	=51	=51
!	!LO:DY:t=f&colon;	!	!	!	!	!	!	!	!
2B-/	f	2f\	.	4r	.	1ff	.	1aa-X	.
.	.	.	.	8F\L	.	.	.	.	.
.	.	.	.	8E-X\J	.	.	.	.	.
4r	.	4r	.	8D\L	.	.	.	.	.
.	.	.	.	8C\	.	.	.	.	.
4B-/	.	4f\	.	8BB-\	.	.	.	.	.
.	.	.	.	8D\J	.	.	.	.	.
=52	=52	=52	=52	=52	=52	=52	=52	=52	=52
4e-\	.	(4f\	.	4E-\	.	4ee-\	.	4gg\	.
4G/	.	4e-\	.	4E-\	.	8ee-\L	.	8gg\L	.
.	.	.	.	.	.	8gg\J	.	8bb-\J	.
4B-/	.	4f\	.	4D\	.	8gg\L	.	8bb-\L	.
.	.	.	.	.	.	8ff\	.	8aa-\	.
4e-/	.	4g\)	.	4E-\	.	8ff\	.	8aa-\	.
.	.	.	.	.	.	8ee-\J	.	8gg\J	.
!LO:LB:g=original	!	!	!	!	!	!	!	!	!
=53	=53	=53	=53	=53	=53	=53	=53	=53	=53
4B-/	.	4f\	.	4BB-/	.	4dd\	.	4ff\	.
4r	.	4r	.	4r	.	8gg\L	.	8bb-\L	.
.	.	.	.	.	.	8ee-\J	.	8gg\J	.
4B-/	.	4f\	.	4BB-/	.	4dd\	.	4ff\	.
4r	.	4r	.	4r	.	8gg\L	.	8bb-\L	.
.	.	.	.	.	.	8ee-\J	.	8gg\J	.
!	!	!LO:LB:g=original	!	!	!	!	!	!	!
=54	=54	=54	=54	=54	=54	=54	=54	=54	=54
!	!	!	!	!LO:TX:t=P:problem:mixed beam	!	!	!	!	!
4B-/	.	4f\	.	8BB-/L	.	4dd\	.	4ff\	.
.	.	.	.	8B-\	.	.	.	.	.
4B-/	.	4f\	.	8F\	.	4dd\	.	4ff\	.
.	.	.	.	8D\J	.	.	.	.	.
4B-/	.	4f\	.	4BB-/	.	4dd\	.	4ff\	.
4r	.	4r	.	4r	.	4r	.	8r	.
.	.	.	.	.	.	.	.	8b-\	.
=55	=55	=55	=55	=55	=55	=55	=55	=55	=55
8r	.	8r	.	4E-\	.	4g/	.	4ee-\	.
8G/	.	8e-\	.	.	.	.	.	.	.
4G/	.	4e-\	.	4r	.	8r	.	8r	.
.	.	.	.	.	.	8b-/	.	8gg\	.
8r	.	8r	.	4E-\	.	4g/	.	4ee-\	.
8G/	.	8e-\	.	.	.	.	.	.	.
4G/	.	4e-\	.	4r	.	8r	.	8r	.
.	.	.	.	.	.	8b-/	.	8gg\	.
=56	=56	=56	=56	=56	=56	=56	=56	=56	=56
4G/	.	4e-\	.	4E-\	.	8g\L	.	8ee-|\L	.
.	.	.	.	.	.	8b-\	.	8gg|\	.
4G/	.	4e-\	.	4E-\	.	8g\	.	8ee-|\	.
.	.	.	.	.	.	8b-\J	.	8gg|\J	.
8r	.	8r	.	4E-\	.	4g/	.	4ee-\	.
8G/	.	8e-\	.	.	.	.	.	.	.
4G/	.	4e-\	.	4r	.	4r	.	8r	.
.	.	.	.	.	.	.	.	8b-\	.
!	!	!	!	!	!	!LO:LB:g=original	!	!	!
=57	=57	=57	=57	=57	=57	=57	=57	=57	=57
8r	.	8r	.	4BB-/	.	4dd\	.	4ff\	.
8B-/	.	8f\	.	.	.	.	.	.	.
4B-/	.	4f\	.	4r	.	8r	.	8r	.
.	.	.	.	.	.	8ff\	.	8aa-\	.
8r	.	8r	.	4BB-/	.	4dd\	.	4ff\	.
8B-/	.	8f\	.	.	.	.	.	.	.
4B-/	.	4f\	.	4r	.	8r	.	8r	.
.	.	.	.	.	.	8ff\	.	8aa-\	.
=58	=58	=58	=58	=58	=58	=58	=58	=58	=58
4B-/	.	4f\	.	4BB-/	.	8dd\L	.	8ff\L	.
.	.	.	.	.	.	8ff\	.	8aa-\	.
4B-/	.	4f\	.	4BB-/	.	8dd\	.	8ff\	.
.	.	.	.	.	.	8ff\J	.	8aa-\J	.
!	!	!	!	!	!	!	!	!LO:LB:g=original	!
=-	=-	=-	=-	=-	=-	=-	=-	=-	=-
!	!	!	!	!	!	!	!	!LO:TX:t=P:problem:część taktu niewidoczna	!
8r	.	8r	.	4BB-/	.	4dd\	.	4ryy	.
8B-/	.	8f\	.	.	.	.	.	.	.
4B-/	.	4f\	.	4r	.	4r	.	8ryy	.
.	.	.	.	.	.	.	.	8b-\	.
!	!	!	!	!LO:LB:g=original	!	!	!	!	!
=59	=59	=59	=59	=59	=59	=59	=59	=59	=59
!	!LO:DY:a:t=f&colon; p&colon;	!	!	!	!LO:DY:t=fp&colon;	!	!	!	!
1E-	fp	[1e-	fp	1E-	fp	1g	.	16ee-\LL	.
.	.	.	.	.	.	.	.	16ff\	.
.	.	.	.	.	.	.	.	16gg\	.
.	.	.	.	.	.	.	.	16ff\JJ	.
.	.	.	.	.	.	.	.	4ee-\	.
.	.	.	.	.	.	.	.	8r	.
.	.	.	.	.	.	.	.	8dd-X\L	.
.	.	.	.	.	.	.	.	8dd-\	.
.	.	.	.	.	.	.	.	8dd-\J	.
=60	=60	=60	=60	=60	=60	=60	=60	=60	=60
!	!	!	!LO:DY:t=f&colon;	!	!	!	!	!LO:SIC:v:s=8ee-\L	!
2E-/	.	2e-\]	f	2E-\	.	1a-	.	8dd\L	.
.	.	.	.	.	.	.	.	8cc\J	.
.	.	.	.	.	.	.	.	4cc\	.
2B-/	.	2f\	.	2D\	.	.	.	8r	.
.	.	.	.	.	.	.	.	8aa-\L	.
.	.	.	.	.	.	.	.	8ddnX\	.
.	.	.	.	.	.	.	.	8ff\J	.
!LO:LB:g=original	!	!	!	!	!	!	!	!	!
=61	=61	=61	=61	=61	=61	=61	=61	=61	=61
!	!LO:DY:a:t=f&colon; p&colon;	!	!	!	!LO:DY:t=fp&colon;	!LO:TX:a:t=a	!	!	!
1E-	fp	1e-	fp	1E-	fp	1g	.	16ee-\LL	.
.	.	.	.	.	.	.	.	16ff\	.
.	.	.	.	.	.	.	.	16gg\	.
.	.	.	.	.	.	.	.	16ff\JJ	.
.	.	.	.	.	.	.	.	4ee-\	.
.	.	.	.	.	.	.	.	8r	.
.	.	.	.	.	.	.	.	8dd-X\L	.
.	.	.	.	.	.	.	.	8dd-\	.
.	.	.	.	.	.	.	.	8dd-\J	.
=62	=62	=62	=62	=62	=62	=62	=62	=62	=62
!	!	!	!	!	!	!LO:TX:a:t=b	!	!LO:SIC:v:s=8ee-\L	!
2E-/	.	2e-\	.	2E-\	f	1a-	.	8dd\L	.
.	.	.	.	.	.	.	.	8cc\J	.
.	.	.	.	.	.	.	.	4cc\	.
!	!	!	!	!	!LO:DY:t=p&colon;	!	!	!	!
2B-/	.	2f\	.	2D\	p	.	.	8r	.
.	.	.	.	.	.	.	.	8aa-\L	.
.	.	.	.	.	.	.	.	8ddnX\	.
.	.	.	.	.	.	.	.	8ff\J	.
=63	=63	=63	=63	=63	=63	=63	=63	=63	=63
4G/	.	4e-\	.	4E-\	.	4g/	.	4ee-\	.
4r	.	4r	.	4r	.	4B-/	.	4b-\	.
2r	.	2r	.	2r	.	4e-/	.	4ee-\	.
.	.	.	.	.	.	4g/	.	4gg\	.
!	!	!LO:LB:g=original	!	!	!	!	!	!	!
=64	=64	=64	=64	=64	=64	=64	=64	=64	=64
!	!LO:DY:t=f&colon;	!	!	!	!	!	!	!	!
4r	f	4r	.	4r	.	1b-	.	2bb-\	.
4BB-/	.	4B-\	.	4BB-/	.	.	.	.	.
4E-/	.	4e-\	.	4E-\	.	.	.	8aa-\L	.
.	.	.	.	.	.	.	.	8gg\	.
4G/	.	4g\	.	4G\	.	.	.	8ff\	.
.	.	.	.	.	.	.	.	8ee-\J	.
!	!	!	!	!	!	!	!	!LO:LB:g=original	!
=65	=65	=65	=65	=65	=65	=65	=65	=65	=65
2B-/	.	2f\	.	(4B-\	.	1b-	.	8dd\	.
.	.	.	.	.	.	.	.	4dd\	.
.	.	.	.	4A-X\)	.	.	.	.	.
.	.	.	.	.	.	.	.	(16ee-\LL	.
.	.	.	.	.	.	.	.	16ff\JJ)	.
2G/	.	2e-\	.	4G\	.	.	.	4ee-\	.
.	.	.	.	4E-\	.	.	.	4gg\	.
=66	=66	=66	=66	=66	=66	=66	=66	=66	=66
2B-/	.	2f\	.	4C\	.	1b-	.	4.ff\	.
.	.	.	.	4BB-\	.	.	.	.	.
.	.	.	.	.	.	.	.	(16gg\LL	.
.	.	.	.	.	.	.	.	16aa-\JJ)	.
2e-\	.	2g\	.	4E-'\	.	.	.	4gg\	.
.	.	.	.	4G'\	.	.	.	4ee-\	.
=67	=67	=67	=67	=67	=67	=67	=67	=67	=67
2B-/	.	2f\	.	4B-\	.	1b-	.	4.dd\	.
.	.	.	.	4A-\	.	.	.	.	.
.	.	.	.	.	.	.	.	(16ee-\LL	.
.	.	.	.	.	.	.	.	16ff\JJ)	.
2G/	.	2e-\	.	4G\	.	.	.	4ee-\	.
.	.	.	.	4E-\	.	.	.	4gg\	.
=68	=68	=68	=68	=68	=68	=68	=68	=68	=68
2B-/	.	(2f\	.	4E-\	.	2.b-\	.	4.ff\	.
.	.	.	.	4BB-/	.	.	.	.	.
.	.	.	.	.	.	.	.	16gg\LL	.
.	.	.	.	.	.	.	.	16aa-\JJ	.
4e-\	.	4g\)	.	4E-\	.	.	.	4gg\	.
4r	.	4r	.	4r	.	4gg\	.	4bb-\	.
!	!	!	!	!LO:LB:g=original	!	!	!	!	!
=69	=69	=69	=69	=69	=69	=69	=69	=69	=69
4r	.	4r	.	4r	.	2gg\	.	2bb-\	.
4G/	.	4e-\	.	4E-\	.	.	.	.	.
4B-/	.	(4f\	.	4D\	.	8aa-\L	.	8ccc\L	.
.	.	.	.	.	.	8gg\	.	8bb-\	.
4e-/	.	4g\)	.	4E-\	.	8ff\	.	8aa-\	.
.	.	.	.	.	.	8ee-\J	.	8gg\J	.
!	!	!	!	!	!	!LO:LB:g=original	!	!	!
=70	=70	=70	=70	=70	=70	=70	=70	=70	=70
!	!	!	!	!LO:TX:t=P:problem:mixed beam	!	!	!	!	!
.	.	.	.	.	.	.	.	16qqgg/	.
4B-/	.	4f\	.	8BB-/L	.	4dd\	.	4ff\	.
.	.	.	.	8B-\	.	.	.	.	.
8.B-/L	.	8.f\L	.	8F\	.	8.dd\L	.	8.ff\L	.
.	.	.	.	8D\J	.	.	.	.	.
16B-/Jk	.	16f\Jk	.	.	.	16dd\Jk	.	16ff\Jk	.
4B-/	.	4f\	.	4BB-/	.	4dd\	.	4ff\	.
4r	.	4r	.	4r	.	8r	.	8r	.
.	.	.	.	.	.	8g/	.	8b-\	.
!LO:LB:g=original	!	!	!	!	!	!	!	!	!
=71	=71	=71	=71	=71	=71	=71	=71	=71	=71
!	!	!	!LO:DY:t=f&colon;	!	!	!	!	!	!
2E-/	.	2e-\	f	4E-\	.	4.g/	.	4.b-\	.
.	.	.	.	4EE-/	.	.	.	.	.
.	.	.	.	.	.	16a-/LL	.	(16cc\LL	.
.	.	.	.	.	.	16b-/JJ	.	16dd\JJ)	.
2r	.	2r	.	4r	.	8cc\L	.	8ee-\L	.
.	.	.	.	.	.	8b-\	.	8dd\	.
.	.	.	.	4E-\	.	8a-\	.	8cc\	.
.	.	.	.	.	.	8g\J	.	8b-\J	.
=72	=72	=72	=72	=72	=72	=72	=72	=72	=72
4B-/	.	4B-/	.	4D\	.	4f/	.	2b-T\	.
4r	.	4r	.	8r	.	8r	.	.	.
.	.	.	.	16D\LL	.	16f/LL	.	.	.
.	.	.	.	16E-\JJ	.	16g/JJ	.	.	.
!	!	!	!	!	!LO:DY:t=p&colon;:rj	!	!	!	!
4r	.	4r	.	8F'\L	p	8a-/L	.	8b-'\L	.
.	.	.	.	8D'\	.	8f/	.	8b-'\	.
!	!LO:DY:t=p&colon;	!	!LO:DY:t=p&colon;	!	!	!	!	!	!
4B-/	p	4B-/	p	8F'\	.	8a-/	.	8b-'\	.
.	.	.	.	8D'\J	.	8f/J	.	8b-'\J	.
!	!	!	!	!	!	!	!	!LO:LB:g=original	!
=73	=73	=73	=73	=73	=73	=73	=73	=73	=73
!	!	!	!	!	!	!	!	!LO:TX:t=P:problem:część taktu niewidoczna	!
4B-/	.	4B-/	.	4E-\	.	4.g/	.	2ryy	.
4r	.	4r	.	4EE-/	.	.	.	.	.
.	.	.	.	.	.	16a-/LL	.	.	.
.	.	.	.	.	.	16b-/JJ	.	.	.
2r	.	2r	.	4r	.	8cc/L	.	8ryy	.
.	.	.	.	.	.	8b-/	.	8dd\L	.
.	.	.	.	4E-\	.	8a-/	.	8cc\	.
.	.	.	.	.	.	8g/J	.	8b-\J	.
!	!	!LO:LB:g=original	!	!	!	!	!	!	!
=74	=74	=74	=74	=74	=74	=74	=74	=74	=74
4B-/	.	4B-/	.	4C\	.	4f/	.	2b-\	.
4r	.	4r	.	8r	.	8r	.	.	.
.	.	.	.	16D\LL	.	16f/LL	.	.	.
.	.	.	.	16E-\JJ	.	16g/JJ	.	.	.
4r	.	4B-/	.	8F'\L	.	8a-/L	.	8b-\L	.
.	.	.	.	8D'\	.	8f/	.	8b-\	.
4B-/	.	4r	.	8F'\	.	8a-/	.	8b-\	.
.	.	.	.	8D'\J	.	8f/J	.	8b-\J	.
!	!	!	!	!LO:LB:g=original	!	!	!	!	!
=75	=75	=75	=75	=75	=75	=75	=75	=75	=75
4B-/	.	4B-/	.	4E-\	.	4.g/	.	4.b-\	.
4r	.	4r	.	4EE-/	.	.	.	.	.
.	.	.	.	.	.	8e-/	.	8g/	.
2r	.	2r	.	2r	.	8f/L	.	8a-\L	.
.	.	.	.	.	.	8g/	.	8b-\	.
.	.	.	.	.	.	8a-/	.	8cc\	.
.	.	.	.	.	.	8g/J	.	8dd\J	.
=76	=76	=76	=76	=76	=76	=76	=76	=76	=76
*	*	*	*	*tremolo	*	*	*	*	*
!	!LO:DY:a:t=f&colon;	!	!	!	!	!	!	!	!
1E-	f	1e-	ff	8G\L	.	2.f/	.	2ee-\	.
.	.	.	.	8G\	.	.	.	.	.
.	.	.	.	8G\	.	.	.	.	.
.	.	.	.	8G\J	.	.	.	.	.
.	.	.	.	.	.	.	.	8qqdd-X/	.
.	.	.	.	8A-\L	.	.	.	4cc\	.
.	.	.	.	8A-\	.	.	.	.	.
.	.	.	.	.	.	.	.	8qqdd-X/	.
.	.	.	.	8A-\	.	4ff\	.	4aa-\	.
.	.	.	.	8A-\J	.	.	.	.	.
=77	=77	=77	=77	=77	=77	=77	=77	=77	=77
*	*	*	*	*	*	*tremolo	*	*	*
2e-\	.	2g\	.	8B-\L	.	8ee-\L	.	2gg\	.
.	.	.	.	8B-\	.	8ee-\	.	.	.
.	.	.	.	8B-\	.	8ee-\	.	.	.
.	.	.	.	8B-\J	.	8ee-\J	.	.	.
2B-/	.	2f\	.	8BB-/L	.	8dd\L	.	2ffT\	.
.	.	.	.	8BB-/	.	8dd\	.	.	.
.	.	.	.	8BB-/	.	8dd\	.	.	.
.	.	.	.	8BB-/J	.	8dd\J	.	.	.
*	*	*	*	*Xtremolo	*	*Xtremolo	*	*	*
!	!	!	!	!	!	!LO:LB:g=original	!	!	!
=78	=78	=78	=78	=78	=78	=78	=78	=78	=78
4G/	.	4e-\	.	4E-\	.	4ee-\	.	16bb-\LL	.
.	.	.	.	.	.	.	.	16gg\	.
.	.	.	.	.	.	.	.	16bb-\	.
.	.	.	.	.	.	.	.	16gg\JJ	.
4r	.	4r	.	4r	.	4r	.	4ee-\	.
4B-/	.	4f\	.	4BB-/	.	4dd\	.	16aa-\LL	.
.	.	.	.	.	.	.	.	16ff\	.
.	.	.	.	.	.	.	.	16aa-\	.
.	.	.	.	.	.	.	.	16ff\JJ	.
4r	.	4r	.	4r	.	4r	.	4dd\	.
=79	=79	=79	=79	=79	=79	=79	=79	=79	=79
4G/	.	4e-\	.	4EE-/	.	8r	.	4ee-\	.
.	.	.	.	.	.	8b-\L	.	.	.
4r	.	4r	.	4r	.	8cc\	.	4r	.
.	.	.	.	.	.	8dd\J	.	.	.
2r	.	2r	.	4r	.	16ee-\LL	.	4r	.
.	.	.	.	.	.	16dd\	.	.	.
.	.	.	.	.	.	16ee-\	.	.	.
.	.	.	.	.	.	16ff\JJ	.	.	.
.	.	.	.	4D\	.	16gg\LL	.	4b-\	.
.	.	.	.	.	.	16ff\	.	.	.
.	.	.	.	.	.	16gg\	.	.	.
.	.	.	.	.	.	16aa-\JJ	.	.	.
=80	=80	=80	=80	=80	=80	=80	=80	=80	=80
!	!LO:DY:t=f&colon;	!	!	!	!	!	!	!	!
4G/	f	4e-\	.	4E-\	.	16bb-\LL	.	4ee-\	.
.	.	.	.	.	.	16gg\	.	.	.
.	.	.	.	.	.	16bb-\	.	.	.
.	.	.	.	.	.	16gg\JJ	.	.	.
4r	.	4r	.	4r	.	4ee-\	.	4r	.
4B-/	.	4f\	.	4BB-/	.	16aa-\LL	.	4dd\	.
.	.	.	.	.	.	16ff\	.	.	.
.	.	.	.	.	.	16aa-\	.	.	.
.	.	.	.	.	.	16ff\JJ	.	.	.
4r	.	4r	.	4r	.	4dd\	.	4r	.
!LO:LB:g=original	!	!	!	!	!	!	!	!LO:LB:g=original	!
=81	=81	=81	=81	=81	=81	=81	=81	=81	=81
4G/	.	4e-\	.	4EE-/	.	4ee-\	.	16E-/LL	.
.	.	.	.	.	.	.	.	16G/	.
.	.	.	.	.	.	.	.	16B-/	.
.	.	.	.	.	.	.	.	16e-/JJ	.
4r	.	4r	.	4r	.	4r	.	16g\LL	.
.	.	.	.	.	.	.	.	16b-\	.
.	.	.	.	.	.	.	.	16ee-\	.
.	.	.	.	.	.	.	.	16gg\JJ	.
4r	.	4r	.	4r	.	16E-/LL	.	2bb-\	.
.	.	.	.	.	.	16G/	.	.	.
.	.	.	.	.	.	16B-/	.	.	.
.	.	.	.	.	.	16e-/JJ	.	.	.
4G/	.	4e-\	.	4E-\	.	16g\LL	.	.	.
.	.	.	.	.	.	16b-\	.	.	.
.	.	.	.	.	.	16ee-\	.	.	.
.	.	.	.	.	.	16gg\JJ	.	.	.
=82	=82	=82	=82	=82	=82	=82	=82	=82	=82
4B-/	.	4f\	.	4D\	.	8ff\L	.	8aa-\L	.
.	.	.	.	.	.	8ee-\	.	8gg'\	.
4r	.	4r	.	4r	.	8dd\	.	8ff'\	.
.	.	.	.	.	.	8cc\J	.	8ee-'\J	.
4r	.	4r	.	4r	.	8b-\L	.	8dd'\L	.
.	.	.	.	.	.	8a-\	.	8cc'\	.
4B-/	p	4f\	.	4D\	.	8g\	.	8b-'\	.
.	.	.	.	.	.	8f\J	.	8a-'\J	.
=83	=83	=83	=83	=83	=83	=83	=83	=83	=83
4B-/	.	4e-\	.	4E-\	.	4e-/	.	16E-/LL	.
.	.	.	.	.	.	.	.	16G/	.
.	.	.	.	.	.	.	.	16B-/	.
.	.	.	.	.	.	.	.	16e-/JJ	.
4r	.	4r	.	4r	.	4r	.	16g\LL	.
.	.	.	.	.	.	.	.	16b-\	.
.	.	.	.	.	.	.	.	16ee-\	.
.	.	.	.	.	.	.	.	16gg\JJ	.
!	!	!	!	!	!	!LO:LB:g=original	!	!	!
=-	=-	=-	=-	=-	=-	=-	=-	=-	=-
2r	.	4r	.	4r	.	16E-/LL	.	2bb-\	.
.	.	.	.	.	.	16G/	.	.	.
.	.	.	.	.	.	16B-/	.	.	.
.	.	.	.	.	.	16e-/JJ	.	.	.
.	.	4e-\	.	4E-\	.	16g\LL	.	.	.
.	.	.	.	.	.	16b-\	.	.	.
.	.	.	.	.	.	16ee-\	.	.	.
.	.	.	.	.	.	16gg\JJ	.	.	.
=84	=84	=84	=84	=84	=84	=84	=84	=84	=84
!LO:TX:t=P:problem:brak taktu 84	!	!	!LO:DY:t=p&colon;	!	!	!	!	!	!
1ryy	.	4f\	p	4C/	.	8ff\L	.	8aa-'\L	.
.	.	.	.	.	.	8ee-\	.	8gg'\	.
.	.	4r	.	4r	.	8dd\	.	8ff'\	.
.	.	.	.	.	.	8cc\J	.	8ee-'\J	.
.	.	4r	.	4r	.	8b-\L	.	8dd'\L	.
.	.	.	.	.	.	8a-\	.	8cc'\	.
.	.	4f\	.	4D\	.	8g\	.	8b-'\	.
.	.	.	.	.	.	8f\J	.	8a-'\J	.
!	!	!	!	!LO:LB:g=original	!	!	!	!	!
=85	=85	=85	=85	=85	=85	=85	=85	=85	=85
!	!	!	!LO:DY:t=f&colon;	!	!	!	!	!	!
4G/	.	4e-\	f	4E-\	.	4e-/	.	4g/	.
4r	.	4r	.	4r	.	8cc\L	.	8ee-\L	.
.	.	.	.	.	.	8qqdd/	.	8qqff/	.
.	.	.	.	.	.	8cc\J	.	8ee-\J	.
4r	.	4r	.	4r	.	8b-\L	.	8dd\L	.
.	.	.	.	.	.	8qqcc/	.	8qqee-/	.
.	.	.	.	.	.	8b-\J	.	8dd\J	.
4E-/	.	4e-\	.	4A-\	.	8a-\L	.	8cc\L	.
.	.	.	.	.	.	8qqb-/	.	8qqdd/	.
.	.	.	.	.	.	8a-\J	.	8cc\J	.
!	!	!	!	!	!	!	!	!LO:LB:g=original	!
=86	=86	=86	=86	=86	=86	=86	=86	=86	=86
4E-/	.	4e-\	.	4E-\	.	4g/	.	4b-\	.
4r	.	4r	.	4r	.	8a-\L	.	4cc\	.
.	.	.	.	.	.	8a-\J	.	.	.
.	.	.	.	.	.	.	.	8qqcc/	.
4r	.	4r	.	4r	.	8g\L	.	8b-\L	.
.	.	.	.	.	.	.	.	8qqcc/	.
.	.	.	.	.	.	8g\J	.	8b-\J	.
4B-/	.	4f\	.	4D\	.	8f\L	.	8a-\L	.
.	.	.	.	.	.	.	.	8qqb-/	.
.	.	.	.	.	.	8f\J	.	8a-\J	.
=87	=87	=87	=87	=87	=87	=87	=87	=87	=87
4G/	.	4e-\	.	4E-\	.	8e-/L	.	8g/L	.
.	.	.	.	.	.	8B-/	.	8e-/	.
4r	.	4r	.	4r	.	8d/	.	8f/	.
.	.	.	.	.	.	8e-/J	.	8g/J	.
2r	.	2r	.	2r	.	8f\L	.	8a-\L	.
.	.	.	.	.	.	8g\	.	8b-\	.
.	.	.	.	.	.	8a-\	.	8cc\	.
.	.	.	.	.	.	8f\J	.	8dd\J	.
=88	=88	=88	=88	=88	=88	=88	=88	=88	=88
*	*	*	*	*tremolo	*	*	*	*	*
!	!LO:DY:a:t=f&colon;	!	!LO:DY:t=f&colon;	!	!	!	!	!	!
1E-	f	1e-	f	8G\L	.	2.e-/	.	2ee-\	.
.	.	.	.	8G\	.	.	.	.	.
.	.	.	.	8G\	.	.	.	.	.
.	.	.	.	8G\J	.	.	.	.	.
.	.	.	.	.	.	.	.	8qqdd-X/	.
.	.	.	.	8A-\L	.	.	.	4cc\	.
.	.	.	.	8A-\	.	.	.	.	.
.	.	.	.	.	.	.	.	8qqdd-X/	.
.	.	.	.	8A-\	.	4ff\	.	4aa-\	.
.	.	.	.	8A-\J	.	.	.	.	.
=89	=89	=89	=89	=89	=89	=89	=89	=89	=89
*	*	*	*	*	*	*tremolo	*	*	*
2e-\	.	2g\	.	8B-\L	.	8ee-\L	.	2gg\	.
.	.	.	.	8B-\	.	8ee-\	.	.	.
.	.	.	.	8B-\	.	8ee-\	.	.	.
.	.	.	.	8B-\J	.	8ee-\J	.	.	.
*	*	*	*	*	*	*Xtremolo	*	*	*
2B-/	.	2f\	.	8BB-/L	.	8dd\L	.	2ffT\	.
.	.	.	.	8BB-/	.	8dd\	.	.	.
.	.	.	.	8BB-/	.	8dd\	.	.	.
.	.	.	.	8BB-/J	.	8dd\J	.	.	.
*	*	*	*	*Xtremolo	*	*	*	*	*
!	!	!	!	!	!	!LO:LB:g=original	!	!	!
=90	=90	=90	=90	=90	=90	=90	=90	=90	=90
4G/	.	4e-\	.	4E-\	.	4ee-\	.	4ee-\	.
4r	.	4r	.	4r	.	4aa-\	.	4ccc\	.
4r	.	4r	.	4r	.	4gg\	.	4bb-\	.
4B-/	.	4f\	.	4BB-/	.	4a-\	.	4dd\	.
=91	=91	=91	=91	=91	=91	=91	=91	=91	=91
4G/	.	4e-\	.	4EE-/	.	4ee-\	.	4ee-\	.
4r	.	4r	.	4r	.	4aa-\	.	4ccc\	.
4r	.	4r	.	4r	.	4gg\	.	4bb-\	.
4B-/	.	4f\	.	4BB-/	.	4f/	.	4dd\	.
!LO:LB:g=original	!	!	!	!	!	!	!	!	!
=92	=92	=92	=92	=92	=92	=92	=92	=92	=92
!	!	!LO:SIC:v:s=4e-\	!	!	!	!	!	!	!
4G/	.	4f\	.	4E-\	.	8g\L	.	8ee-\L	.
.	.	.	.	.	.	8b-\	.	8gg\	.
!	!	!LO:SIC:v:s=4e-\	!	!	!	!	!	!	!
4G/	.	4f\	.	4EE-/	.	8g\	.	8ee-\	.
.	.	.	.	.	.	8b-\J	.	8gg\J	.
!	!	!LO:SIC:v:s=4e-\	!	!	!	!	!	!	!
4G/	.	4f\	.	4EE-/	.	4g/	.	4ee-\	.
8r	.	8r	.	8r	.	8r	.	8r	.
=:|!	=:|!	=:|!	=:|!	=:|!	=:|!	=:|!	=:|!	=:|!	=:|!
*-	*-	*-	*-	*-	*-	*-	*-	*-	*-
!!!system-decoration: [(s1,s2,s3)][(s4,s5)]
!!!RDF**kern: | = vertical stroke
!!!AIN: 2 clars 2 empty 1 fagot
!!!ENC: Marcin Jachim
!!!END: 2021-06-18
!!!ENC: Marta Chmielewska
!!!END: 2021-07-20
